X: 26642
T: Micro Maniac
R: hornpipe
M: 4/4
K: Aminor
M: 5/8
|:ABc BA|FA GA D|ABc ed|fed cd|
ABc FA|GAc/2+slide+d/2 ed|fed gA|aeAcd:|
|:Ac FED|AG FG^G|ABc BA|dB cBA|
eg dcA|cAA BA|ce de A|fA gAa:|

